assets/svgs/valentine-grey/ValentineGrey1.svg

<svg xmlns="http://www.w3.org/2000/svg" data-name="Layer 1" viewBox="0 0 128 128"><path d="M49.03 42.993l6.911 6.907a1.25 1.25 0 001.768 0l6.911-6.911a1.182 1.182 0 00.137-.162 6.132 6.132 0 00-7.932-9.2 6.132 6.132 0 00-7.933 9.2 1.211 1.211 0 00.138.166zm1.9-6.783a3.62 3.62 0 015.047-.085 1.249 1.249 0 001.7 0 3.631 3.631 0 015.136 5.128 1.27 1.27 0 00-.067.079l-5.921 5.922-5.925-5.923a1.253 1.253 0 00-.068-.08 3.621 3.621 0 01.093-5.041z"/><path d="M99.914 58.878h-8.789a1.25 1.25 0 000 2.5h3.953L87 65.853V28.086a1.25 1.25 0 00-1.25-1.25h-43.5a1.25 1.25 0 00-1.25 1.25v30.792H28.086a1.25 1.25 0 00-1.25 1.25v39.786a1.25 1.25 0 001.25 1.25h71.828a1.25 1.25 0 001.25-1.25V60.128a1.25 1.25 0 00-1.25-1.25zM29.336 62.25l20.821 11.532-20.821 22.9zM52.4 75.027l10.99 6.087a1.248 1.248 0 001.211 0L75.6 75.027l21.488 23.637H30.912zm25.439-1.245L98.664 62.25v34.432zM42.25 63.224a1.25 1.25 0 001.25-1.25V29.336h41v37.9L64 78.592 32.921 61.378H41v.6a1.25 1.25 0 001.25 1.246z"/><path d="M48.306 54.834a1.25 1.25 0 001.25 1.25h28.887a1.25 1.25 0 000-2.5H49.556a1.25 1.25 0 00-1.25 1.25zM78.443 58.878H49.556a1.25 1.25 0 000 2.5h28.887a1.25 1.25 0 000-2.5zM78.443 64.173H49.556a1.25 1.25 0 000 2.5h28.887a1.25 1.25 0 000-2.5z"/></svg>

<svg id="Layer_1" data-name="Layer 1" xmlns="http://www.w3.org/2000/svg" viewBox="0 0 128 128"><title>ENVELOPE</title><path d="M49.03,42.993,55.941,49.9a1.25,1.25,0,0,0,1.768,0l6.911-6.911a1.182,1.182,0,0,0,.137-.162,6.132,6.132,0,0,0-7.932-9.2,6.132,6.132,0,0,0-7.933,9.2A1.211,1.211,0,0,0,49.03,42.993Zm1.9-6.783a3.62,3.62,0,0,1,5.047-.085,1.249,1.249,0,0,0,1.7,0,3.631,3.631,0,0,1,5.136,5.128c-.023.025-.046.052-.067.079l-5.921,5.922L50.9,41.331c-.021-.027-.044-.054-.068-.08A3.621,3.621,0,0,1,50.925,36.21Z"/><path d="M99.914,58.878H91.125a1.25,1.25,0,0,0,0,2.5h3.953L87,65.853V28.086a1.25,1.25,0,0,0-1.25-1.25H42.25A1.25,1.25,0,0,0,41,28.086V58.878H28.086a1.25,1.25,0,0,0-1.25,1.25V99.914a1.25,1.25,0,0,0,1.25,1.25H99.914a1.25,1.25,0,0,0,1.25-1.25V60.128A1.25,1.25,0,0,0,99.914,58.878ZM29.336,62.25,50.157,73.782l-20.821,22.9ZM52.4,75.027l10.99,6.087a1.248,1.248,0,0,0,1.211,0L75.6,75.027,97.088,98.664H30.912Zm25.439-1.245L98.664,62.25V96.682ZM42.25,63.224a1.25,1.25,0,0,0,1.25-1.25V29.336h41v37.9L64,78.592,32.921,61.378H41v.6A1.25,1.25,0,0,0,42.25,63.224Z"/><path d="M48.306,54.834a1.25,1.25,0,0,0,1.25,1.25H78.443a1.25,1.25,0,0,0,0-2.5H49.556A1.25,1.25,0,0,0,48.306,54.834Z"/><path d="M78.443,58.878H49.556a1.25,1.25,0,0,0,0,2.5H78.443a1.25,1.25,0,0,0,0-2.5Z"/><path d="M78.443,64.173H49.556a1.25,1.25,0,0,0,0,2.5H78.443a1.25,1.25,0,0,0,0-2.5Z"/></svg>
